Sources/FrostedUI/Resources/Icons.xcassets/lock32.imageset/lock-32.svg

<svg width="32" height="32" viewBox="0 0 32 32" fill="none" xmlns="http://www.w3.org/2000/svg" data-fui-icon="true">
  <path
    d="M16 0C21.5228 0 26 4.47715 26 10V13.6094C28.285 14.0926 29.9999 16.1209 30 18.5498V26.9502C29.9999 29.7391 27.7391 31.9999 24.9502 32H7.0498C4.26092 31.9999 2.00011 29.7391 2 26.9502V18.5498C2.00009 16.1209 3.71496 14.0926 6 13.6094V10C6 4.47715 10.4772 0 16 0ZM7.0498 15C5.08935 15.0001 3.50011 16.5893 3.5 18.5498V26.9502C3.50011 28.9107 5.08935 30.4999 7.0498 30.5H24.9502C26.9107 30.4999 28.4999 28.9107 28.5 26.9502V18.5498C28.4999 16.5893 26.9107 15.0001 24.9502 15H7.0498ZM16 1.5C11.3056 1.5 7.5 5.30558 7.5 10V13.5H24.5V10C24.5 5.30558 20.6944 1.5 16 1.5Z"
    fill="currentColor"
  />
</svg>

<svg xmlns="http://www.w3.org/2000/svg" width="32" height="32" fill="none" data-fui-icon="true" viewBox="0 0 32 32"><path fill="currentColor" d="M16 0c5.523 0 10 4.477 10 10v3.61c2.285.483 4 2.51 4 4.94v8.4A5.05 5.05 0 0 1 24.95 32H7.05A5.05 5.05 0 0 1 2 26.95v-8.4a5.05 5.05 0 0 1 4-4.94V10C6 4.477 10.477 0 16 0M7.05 15a3.55 3.55 0 0 0-3.55 3.55v8.4a3.55 3.55 0 0 0 3.55 3.55h17.9a3.55 3.55 0 0 0 3.55-3.55v-8.4A3.55 3.55 0 0 0 24.95 15zM16 1.5A8.5 8.5 0 0 0 7.5 10v3.5h17V10A8.5 8.5 0 0 0 16 1.5"/></svg>
